Sweet-Rainbow/icons/winetricks.svg

<?xml version="1.0" encoding="UTF-8" standalone="no"?>
<!-- Generator: Gravit.io -->

<svg
   xmlns:dc="http://purl.org/dc/elements/1.1/"
   xmlns:cc="http://creativecommons.org/ns#"
   xmlns:rdf="http://www.w3.org/1999/02/22-rdf-syntax-ns#"
   xmlns:svg="http://www.w3.org/2000/svg"
   xmlns="http://www.w3.org/2000/svg"
   xmlns:sodipodi="http://sodipodi.sourceforge.net/DTD/sodipodi-0.dtd"
   xmlns:inkscape="http://www.inkscape.org/namespaces/inkscape"
   style="isolation:isolate"
   viewBox="0 0 36 36"
   width="48"
   height="48"
   version="1.1"
   id="svg16"
   sodipodi:docname="winetricks.svg"
   inkscape:version="0.92.4 (5da689c313, 2019-01-14)">
  <metadata
     id="metadata22">
    <rdf:RDF>
      <cc:Work
         rdf:about="">
        <dc:format>image/svg+xml</dc:format>
        <dc:type
           rdf:resource="http://purl.org/dc/dcmitype/StillImage" />
        <dc:title></dc:title>
      </cc:Work>
    </rdf:RDF>
  </metadata>
  <defs
     id="defs20" />
  <sodipodi:namedview
     pagecolor="#ffffff"
     bordercolor="#666666"
     borderopacity="1"
     objecttolerance="10"
     gridtolerance="10"
     guidetolerance="10"
     inkscape:pageopacity="0"
     inkscape:pageshadow="2"
     inkscape:window-width="640"
     inkscape:window-height="480"
     id="namedview18"
     showgrid="false"
     inkscape:zoom="29.365243"
     inkscape:cx="25.325443"
     inkscape:cy="32"
     inkscape:current-layer="svg16"
     units="px" />
  <linearGradient
     id="_lgradient_30"
     x1="0"
     y1="0.5"
     x2="1"
     y2="0.5"
     gradientTransform="matrix(31,0,0,3,8,12.5)"
     gradientUnits="userSpaceOnUse">
    <stop
       offset="0%"
       stop-opacity="1"
       style="stop-color:rgb(255,224,49)"
       id="stop2" />
    <stop
       offset="100%"
       stop-opacity="1"
       style="stop-color:rgb(250,0,117)"
       id="stop4" />
  </linearGradient>
  <linearGradient
     id="_lgradient_31"
     x1="0.67180997"
     y1="0.020570019"
     x2="0.42214948"
     y2="0.96016449"
     gradientTransform="matrix(32,0,0,47,7.5,1)"
     gradientUnits="userSpaceOnUse">
    <stop
       offset="0%"
       stop-opacity="1"
       style="stop-color:rgb(26,108,255)"
       id="stop9" />
    <stop
       offset="100%"
       stop-opacity="1"
       style="stop-color:rgb(197,34,255)"
       id="stop11" />
  </linearGradient>
  <g
     id="g831"
     transform="matrix(0.76595745,0,0,0.76595745,-7.4999999e-8,-0.76595753)">
    <path
       id="path7"
       d="M 37.5,12.5 H 39 v 3 H 37.5 9.5 8 v -3 h 1.5 z"
       style="fill:url(#_lgradient_30)"
       inkscape:connector-curvature="0" />
    <path
       id="path14"
       d="M 22,44 V 31.992 C 18.202,31.865 14.592,30.302 11.89,27.61 9.08,24.79 7.5,20.98 7.5,17 V 5 C 7.5,3.94 7.92,2.92 8.67,2.17 9.42,1.42 10.44,1 11.5,1 h 3 v 0 c 1.104,0 2,0.896 2,2 v 0 c 0,1.104 -0.896,2 -2,2 v 0 h -2 c -0.552,0 -1,0.448 -1,1 v 11 c 0,2.92 1.16,5.72 3.22,7.78 2.06,2.06 4.86,3.22 7.78,3.22 h 2 c 2.92,0 5.72,-1.16 7.78,-3.22 C 34.34,22.72 35.5,19.92 35.5,17 V 16.5 6 c 0,-0.552 -0.448,-1 -1,-1 h -8 v 0 0 c -1.104,0 -2,-0.896 -2,-2 v 0 c 0,-1.104 0.896,-2 2,-2 v 0 h 9 c 1.06,0 2.08,0.42 2.83,1.17 C 39.08,2.92 39.5,3.94 39.5,5 V 16.5 17 c 0,3.98 -1.58,7.79 -4.39,10.61 -2.463,2.455 -5.682,3.971 -9.11,4.315 v 0 V 44 h 4.5 c 1.104,0 2,0.896 2,2 v 2 h -17 v -2 c 0,-1.104 0.896,-2 2,-2 z M 20.5,1 v 0 c 1.104,0 2,0.896 2,2 v 0 c 0,1.104 -0.896,2 -2,2 v 0 c -1.104,0 -2,-0.896 -2,-2 v 0 c 0,-1.104 0.896,-2 2,-2 z m 10.1,17.45 v 0 c 0.304,-0.773 1.177,-1.154 1.95,-0.85 v 0 c 0.773,0.304 1.154,1.177 0.85,1.95 v 0 c -0.69,1.73 -1.77,3.27 -3.17,4.5 -1.09,0.99 -2.38,1.73 -3.79,2.16 v 0 c -0.789,0.248 -1.629,-0.193 -1.875,-0.985 v 0 c -0.246,-0.792 0.2,-1.632 0.995,-1.875 v 0 c 0.99,-0.31 1.91,-0.84 2.68,-1.54 1.04,-0.91 1.85,-2.07 2.36,-3.36 z"
       style="fill:url(#_lgradient_31);fill-rule:evenodd"
       inkscape:connector-curvature="0" />
  </g>
</svg>

<?xml version="1.0" encoding="UTF-8" standalone="no"?><!-- Generator: Gravit.io --><svg xmlns="http://www.w3.org/2000/svg" xmlns:xlink="http://www.w3.org/1999/xlink" style="isolation:isolate" viewBox="0 0 48 48" width="48pt" height="48pt"><linearGradient id="_lgradient_30" x1="0" y1="0.5" x2="1" y2="0.5" gradientTransform="matrix(31,0,0,3,8,12.5)" gradientUnits="userSpaceOnUse"><stop offset="0%" stop-opacity="1" style="stop-color:rgb(255,224,49)"/><stop offset="100%" stop-opacity="1" style="stop-color:rgb(250,0,117)"/></linearGradient><path d=" M 37.5 12.5 L 39 12.5 L 39 15.5 L 37.5 15.5 L 9.5 15.5 L 8 15.5 L 8 12.5 L 9.5 12.5 L 37.5 12.5 Z " fill="url(#_lgradient_30)"/><linearGradient id="_lgradient_31" x1="0.6718099850460906" y1="0.020570018975650584" x2="0.4221494918345081" y2="0.9601645064179158" gradientTransform="matrix(32,0,0,47,7.5,1)" gradientUnits="userSpaceOnUse"><stop offset="0%" stop-opacity="1" style="stop-color:rgb(26,108,255)"/><stop offset="100%" stop-opacity="1" style="stop-color:rgb(197,34,255)"/></linearGradient><path d=" M 22 44 L 22 31.992 C 18.202 31.865 14.592 30.302 11.89 27.61 C 9.08 24.79 7.5 20.98 7.5 17 L 7.5 5 C 7.5 3.94 7.92 2.92 8.67 2.17 C 9.42 1.42 10.44 1 11.5 1 L 14.5 1 L 14.5 1 C 15.604 1 16.5 1.896 16.5 3 L 16.5 3 C 16.5 4.104 15.604 5 14.5 5 L 14.5 5 L 12.5 5 C 11.948 5 11.5 5.448 11.5 6 L 11.5 17 C 11.5 19.92 12.66 22.72 14.72 24.78 C 16.78 26.84 19.58 28 22.5 28 L 24.5 28 C 27.42 28 30.22 26.84 32.28 24.78 C 34.34 22.72 35.5 19.92 35.5 17 L 35.5 16.5 L 35.5 6 C 35.5 5.448 35.052 5 34.5 5 L 26.5 5 L 26.5 5 L 26.5 5 C 25.396 5 24.5 4.104 24.5 3 L 24.5 3 C 24.5 1.896 25.396 1 26.5 1 L 26.5 1 L 35.5 1 C 36.56 1 37.58 1.42 38.33 2.17 C 39.08 2.92 39.5 3.94 39.5 5 L 39.5 16.5 L 39.5 17 C 39.5 20.98 37.92 24.79 35.11 27.61 C 32.647 30.065 29.428 31.581 26 31.925 L 26 31.925 L 26 44 L 30.5 44 C 31.604 44 32.5 44.896 32.5 46 L 32.5 48 L 15.5 48 L 15.5 46 C 15.5 44.896 16.396 44 17.5 44 L 22 44 L 22 44 Z  M 20.5 1 L 20.5 1 C 21.604 1 22.5 1.896 22.5 3 L 22.5 3 C 22.5 4.104 21.604 5 20.5 5 L 20.5 5 C 19.396 5 18.5 4.104 18.5 3 L 18.5 3 C 18.5 1.896 19.396 1 20.5 1 L 20.5 1 L 20.5 1 L 20.5 1 Z  M 30.6 18.45 L 30.6 18.45 C 30.904 17.677 31.777 17.296 32.55 17.6 L 32.55 17.6 C 33.323 17.904 33.704 18.777 33.4 19.55 L 33.4 19.55 C 32.71 21.28 31.63 22.82 30.23 24.05 C 29.14 25.04 27.85 25.78 26.44 26.21 L 26.44 26.21 C 25.651 26.458 24.811 26.017 24.565 25.225 L 24.565 25.225 C 24.319 24.433 24.765 23.593 25.56 23.35 L 25.56 23.35 C 26.55 23.04 27.47 22.51 28.24 21.81 C 29.28 20.9 30.09 19.74 30.6 18.45 Z " fill-rule="evenodd" fill="url(#_lgradient_31)"/></svg>
